src/symbolic/apps/preferences-system-privacy-symbolic.svg

<svg xmlns="http://www.w3.org/2000/svg" width="16" height="16"><path d="M8 3l1.22 1.22C10.83 4.74 12 6.22 12 8c0 2.21-1.79 4-4 4s-4-1.79-4-4c0-1.78 1.17-3.26 2.78-3.78zm0 0C5.24 3 3 5.24 3 8c0 2.75 2.24 5 5 5s5-2.25 5-5c0-2.76-2.24-5-5-5z" opacity=".3" fill="#444"/><path d="M8 0C3.58 0 0 3.58 0 8c0 4.41 3.58 8 8 8s8-3.59 8-8c0-4.42-3.58-8-8-8zm0 2c3.31 0 6 2.68 6 6 0 3.31-2.69 6-6 6s-6-2.69-6-6c0-3.32 2.69-6 6-6zm0 2L6.66 5.34C5.68 5.84 5 6.83 5 8c0 1.65 1.34 3 3 3s3-1.35 3-3c0-1.17-.68-2.16-1.66-2.66z" fill="#444"/></svg>

<svg xmlns="http://www.w3.org/2000/svg" width="16" height="16" version="1.1">
 <path style="opacity:0.3;fill:#444444" d="M 8,3 9.22,4.22 C 10.83,4.74 12,6.22 12,8 12,10.21 10.21,12 8,12 5.79,12 4,10.21 4,8 4,6.22 5.17,4.74 6.78,4.22 Z M 8,3 C 5.24,3 3,5.24 3,8 3,10.75 5.24,13 8,13 10.76,13 13,10.75 13,8 13,5.24 10.76,3 8,3 Z"/>
 <path style="fill:#444444" d="M 8,0 C 3.58,0 0,3.58 0,8 0,12.41 3.58,16 8,16 12.42,16 16,12.41 16,8 16,3.58 12.42,0 8,0 Z M 8,2 C 11.31,2 14,4.68 14,8 14,11.31 11.31,14 8,14 4.69,14 2,11.31 2,8 2,4.68 4.69,2 8,2 Z M 8,4 6.66,5.34 C 5.68,5.84 5,6.83 5,8 5,9.65 6.34,11 8,11 9.66,11 11,9.65 11,8 11,6.83 10.32,5.84 9.34,5.34 Z"/>
</svg>
